packages/core/src/svgs/tokens/mono/CRO.svg

<svg width="24" height="24" viewBox="0 0 24 24" fill="none" xmlns="http://www.w3.org/2000/svg">
<path d="M7.15151 2.90918L5.93939 8.36372H18.0606L16.8484 2.90918H7.15151ZM8.36362 12.0001L5.69272 10.1867L2 12.6062L6.93575 21.091H8.80483L10.7879 18.8171V17.7854L8.36362 15.5819V12.0001ZM15.4879 9.57581H8.74363L10.1818 12.0001L9.51938 15.0304H14.7206L13.8182 12.0001L15.4879 9.57581ZM15.6364 12.0001L18.3067 9.93104L22 12.6062L17.134 21.091H15.3357L13.1933 18.8001V17.7419L15.6364 15.4849V12.0001Z" fill="white"/>
</svg>

<svg xmlns="http://www.w3.org/2000/svg" width="24" height="24" fill="none" viewBox="0 0 24 24">
    <path fill="#fff" d="M7.152 2.91 5.939 8.363h12.122l-1.213-5.455zM8.364 12l-2.671-1.813L2 12.607l4.936 8.484h1.869l1.983-2.274v-1.032l-2.424-2.203zm7.124-2.424H8.744L10.182 12l-.663 3.03h5.202L13.818 12zM15.636 12l2.67-2.069L22 12.606l-4.866 8.485h-1.798l-2.143-2.29v-1.06l2.443-2.256z"/>
</svg>
